X: 103
M: 2/4
L: 1/8
K: Am
|:\
ce/d/ cB | Aa^ga | edcB | cB/c/ AE |\
ce/d/ cB | Aa^ga | edcd | e2 e2 :|
|:\
cc/d/ ef | gf/e/ dc | BB/c/ de | fe/d/ cB |\


